neru-dark-classic/22x22/places/folder-dropbox.svg

<?xml version="1.0" encoding="UTF-8" standalone="no"?>
<svg
   xmlns:dc="http://purl.org/dc/elements/1.1/"
   xmlns:cc="http://creativecommons.org/ns#"
   xmlns:rdf="http://www.w3.org/1999/02/22-rdf-syntax-ns#"
   xmlns:svg="http://www.w3.org/2000/svg"
   xmlns="http://www.w3.org/2000/svg"
   xmlns:sodipodi="http://sodipodi.sourceforge.net/DTD/sodipodi-0.dtd"
   xmlns:inkscape="http://www.inkscape.org/namespaces/inkscape"
   width="22"
   height="22"
   version="1.1"
   viewBox="0 0 16 16"
   id="svg7"
   sodipodi:docname="folder-dropbox.svg"
   inkscape:version="0.92.1 r">
  <metadata
     id="metadata11">
    <rdf:RDF>
      <cc:Work
         rdf:about="">
        <dc:format>image/svg+xml</dc:format>
        <dc:type
           rdf:resource="http://purl.org/dc/dcmitype/StillImage" />
      </cc:Work>
    </rdf:RDF>
  </metadata>
  <sodipodi:namedview
     pagecolor="#ffffff"
     bordercolor="#666666"
     borderopacity="1"
     objecttolerance="10"
     gridtolerance="10"
     guidetolerance="10"
     inkscape:pageopacity="0"
     inkscape:pageshadow="2"
     inkscape:window-width="749"
     inkscape:window-height="480"
     id="namedview9"
     showgrid="false"
     inkscape:zoom="10.727273"
     inkscape:cx="11"
     inkscape:cy="11.838983"
     inkscape:window-x="0"
     inkscape:window-y="0"
     inkscape:window-maximized="0"
     inkscape:current-layer="svg7" />
  <defs
     id="defs3">
    <style
       id="current-color-scheme"
       type="text/css">
   .ColorScheme-Text { color:#d3dae3; } .ColorScheme-Highlight { color:#5294e2; }
  </style>
  </defs>
  <path
     style="color:#d3dae3;fill:currentColor;stroke-width:0.83116877"
     class="ColorScheme-Text"
     d="M 10.493506,2.9991898 7.9999996,4.6615275 11.324675,6.3238649 13.818182,4.6615275 Z M 11.324675,6.3238649 7.9999996,8.4017871 10.493506,10.064291 13.818182,8.4017871 Z M 5.5064933,3.0138183 2.181818,4.6761559 4.638005,6.3141404 2.181818,8.361226 5.5064933,10.023563 7.9999996,8.361226 4.7240309,6.3141404 7.9999996,4.6761559 Z M 7.9999996,9.2605503 5.5064933,10.922888 4.6753244,10.507303 v 0.831169 l 3.3246752,1.662338 3.3246754,-1.662338 v -0.831169 l -0.831169,0.415585 z"
     id="path5"
     inkscape:connector-curvature="0" />
</svg>

<svg xmlns="http://www.w3.org/2000/svg" width="22" height="22" version="1.1" viewBox="0 0 16 16" id="svg7"><defs id="defs3"><style id="current-color-scheme" type="text/css"></style></defs><path d="M10.494 3L8 4.661l3.325 1.662 2.493-1.662zm.83 3.324L8 8.402l2.494 1.662 3.324-1.662zm-5.818-3.31L2.182 4.676l2.456 1.638-2.456 2.047 3.324 1.663L8 8.36 4.724 6.314 8 4.676zM8 9.26l-2.494 1.662-.83-.416v.831L8 13.001l3.325-1.663v-.83l-.831.415z" id="path5" color="#d3dae3" fill="currentColor" stroke-width=".831"/></svg>
